X: 993
T: Hem Bakarsın Hem Kaçarsın
C: Uğur Uzunhekim
O: Turkey
F: http://compmusic.upf.edu/node/140
N: ussak--sarki--duyek--hem_bakarsin--ugur_uzunhekim
N: makam= ussak
N: form= sarki
N: usul= duyek = 8/4
M: 8/4
L: 1/16
K: C _2/4B   
Q: 1/4=162
%%MIDI tuningsystem comma53
z4 c2 d2 d4 d4  | c2 e2 d2 e2 dc Bd c4  | \
w:   |   | 
cB AG B2 c2 c4 c4  | 
w:   | 
B2 d2 c2 d2 cB AB A4  | z4 G2 A2 A4 A4  | \
w:   |   | 
A2 c2 B2 A2 B2 c2 d4  | 
w:   | 
z2 e4 d2 d2 c2 BA B2  | c4 d4 B2 A6  | \
w:   |   | 
z4 G2 A2 A4 A4  | A2 c2 B2 A2 B2 c2 d4  | 
w:   |   | 
z2 e4 d2 d2 c2 BA B2  | c4 d4 B2 A6  | \
w:   |   | 
z2 G4 A2 Ac BA A4  | z2 d4 B2 c2 {f}ed d4  | 
w:  Hem  ba kar *  *  *  sın   |  hem  ka çar *  *  *  sın    | 
c2 c4 d2 d2 c2 B2 A2  | B2 c4 d2 cB BA A4  | \
w:  Gö nül *  de   |  ba har  a çar *  *  *  sın    | 
z2 G4 A2 Ac BA A4  | 
w:  Hem  ba kar *  *  *  sın   | 
z2 d4 B2 c2 {f}ed d4  | e2 e4 f2 ga gf e2 d2  | \
w:  hem  ka çar *  *  *  sın    |  Gö nül *  de   | 
d2 e2 d2 c2 df ed d4  | 
w:  ba har  *  a çar *  *  *  sın    | 
z2 e4 d2 d2 c2 B2 A2  | B2 cd c2 d2 cB BA B4  | \
w:  Bil *  sen  *  ki  sen   |  *  çok  *  *  ya man *  *  *  sın    | 
z2 e4 d2 d2 c2 B2 AB  | 
w:  Gül  *  pem *  be si   | 
c2 dc cB BA A4 Bc d2  | z2 e4 d2 d2 c2 B2 A2  | \
w:  nar *  *  çi *  çe *  ğim   SAZ  |  Bil *  sen  *  ki  sen   | 
B2 cd c2 d2 cB BA B4  | 
w:  *  çok  *  *  ya man *  *  *  sın    | 
z2 e4 d2 d2 c2 B2 AB  | c2 dc cB BA A4 Bc d2  | \
w:  Gül  *  pem *  be si   |  nar *  *  çi *  çe *  ğim   SAZ  | 
z2 e4 d2 d2 c2 BA B2  | 
w:  SAZ  | 
c2 dc cB BA A4 BA B2  | z4 G2 B2 B4 B4  | \
w:   |  Ka ra  göz ler   | 
d2 c4 d2 dc BA A4  | 
w:  ü züm  ü züm    | 
e4 f4 g2 e4 d2  | d4 c4 d2 e6  | z4 f2 e2 d4 c4  | \
w:  Var dır  sa na   |  bir  çift  sö züm    |  Ne  o lur sun   | 
z2 c2 d2 c2 dc BA B4  | 
w:  i ki  gö züm    | 
z2 e4 d2 d2 c2 BA B2  | c4 d4 BA3 Bc d2  | \
w:  İlk ba ha *  ra   |  dön sün  gü züm   SAZ  | 
z4 f2 e2 d4 c4  | z2 c2 d2 c2 dc BA B4  | 
w:  Ne  o lur sun   |  i ki  gö züm    | 
z2 e4 d2 d2 c2 BA B2  | c4 d4 B2 A6  | \
w:  İlk ba ha *  ra   |  dön sün  gü züm    | 
z4 c2 d2 d4 d4  | c2 e2 d2 e2 dc Bd c4  | 
w:   |   | 
cB AG B2 c2 c4 c4  | B2 d2 c2 d2 cB AB A4  | \
w:   |   | 
z4 G2 A2 A4 A4  | 
w:   | 
A2 c2 B2 A2 B2 c2 d4  | z2 e4 d2 d2 c2 BA B2  | \
w:   |   | 
c4 d4 B2 A6  | z4 G2 A2 A4 A4  | 
w:   |   | 
A2 c2 B2 A2 B2 c2 d4  | z2 e4 d2 d2 c2 BA B2  | \
w:   |   | 
c4 d4 B2 A6  | z4 G2 A2 A8  | 
w:   |  Bi li rim   | 
d4 B2 B2 c2 {f}ed d4  | z4 c2 d2 d2 c2 B2 A2  | \
w:  gel me ye cek *  *  *  sin    |  Be ni  sen   | 
B4 c2 d2 cB BA A4  | 
w:  kah re de cek *  *  *  sin    | 
z4 G2 A2 A8  | d4 B2 B2 c2 {f}ed d4  | \
w:  Bi li rim   |  gel me ye cek *  *  *  sin    | 
z4 e2 f2 g2 f2 e2 d2  | e4 d2 c2 df ed d4  | 
w:  Be ni  sen   |  kah re de cek *  *  *  sin    | 
z2 e2 e2 d2 d2 c2 BA B2  | c2 {d}cd cB BA B8  | \
w:  Çö zül *  mez  *  bir   |  bil *  *  *  me *  ce *  sin    | 
z2 e4 d2 d2 c2 B2 AB  | 
w:  Gül  *  pem *  be si   | 
c2 dc cB BA A4 Bc d2  | z2 e2 e2 d2 d2 c2 BA B2  | \
w:  nar *  *  çi *  çe *  ğim   SAZ  |  Çö zül *  mez  *  bir   | 
c2 {d}cd cB BA B8  | 
w:  bil *  *  *  me *  ce *  sin    | 
z2 e4 d2 d2 c2 B2 AB  | c2 dc cB BA A4 Bc d2  | \
w:  Gül  *  pem *  be si   |  nar *  *  çi *  çe *  ğim   SAZ  | 
z2 e4 d2 d2 c2 BA B2  | 
w:  SAZ  | 
c2 dc cB BA A4 BA B2  | z4 G2 B2 B4 B4  | \
w:   |  Ka ra  göz ler   | 
d2 c4 d2 dc BA A4  | 
w:  ü züm  ü züm    | 
e4 f4 g2 e4 d2  | d4 c4 d2 e6  | z4 f2 e2 d4 c4  | \
w:  Var dır  sa na   |  bir  çift  sö züm    |  Ne  o lur sun   | 
z2 c2 d2 c2 dc BA B4  | 
w:  i ki  gö züm    | 
z2 e4 d2 d2 c2 BA B2  | c4 d4 BA3 Bc d2  | \
w:  İlk ba ha *  ra   |  dön sün  gü züm   SAZ  | 
z4 f2 e2 d4 c4  | z2 c2 d2 c2 dc BA B4  | 
w:  Ne  o lur sun   |  i ki  gö züm    | 
z2 e4 d2 d2 c2 BA B2  | c4 d4 B2 A6  | |


